X:362
T:Corbie an' da Craw, Da
B:Ringing Strings, Tom Anderson (Lerwick 1983)
Z:Nigel Gatherer
L:1/8
M:4/4
K:D
B|A2 FD E2 =c2|EFGE =CDEC|DDFD E2 =c2|EFGE [G,3D3]:|
F|AddA d2 df|efec d2 FA|A,dd>c d2 eg|f>de>c d2 AF|
Addc d2 df|efec d2 FA|dB=cA B2 Gc|E>FG>E [G,3D3]|]
